images/3233133.svg

<?xml version="1.0" encoding="UTF-8"?>
<svg xmlns="http://www.w3.org/2000/svg" xmlns:xlink="http://www.w3.org/1999/xlink" width="300pt" height="300pt" viewBox="0 0 300 300" version="1.1">
<defs>
<g>
<symbol overflow="visible" id="glyph0-0">
<path style="stroke:none;" d="M 0.453125 1.59375 L 0.453125 -6.34375 L 4.953125 -6.34375 L 4.953125 1.59375 Z M 0.953125 1.09375 L 4.453125 1.09375 L 4.453125 -5.84375 L 0.953125 -5.84375 Z M 0.953125 1.09375 "/>
</symbol>
<symbol overflow="visible" id="glyph0-1">
<path style="stroke:none;" d="M 3.546875 -5.953125 C 2.898438 -5.953125 2.382812 -5.710938 2 -5.234375 C 1.625 -4.753906 1.4375 -4.101562 1.4375 -3.28125 C 1.4375 -2.445312 1.625 -1.789062 2 -1.3125 C 2.382812 -0.832031 2.898438 -0.59375 3.546875 -0.59375 C 4.191406 -0.59375 4.703125 -0.832031 5.078125 -1.3125 C 5.453125 -1.789062 5.640625 -2.445312 5.640625 -3.28125 C 5.640625 -4.101562 5.453125 -4.753906 5.078125 -5.234375 C 4.703125 -5.710938 4.191406 -5.953125 3.546875 -5.953125 Z M 3.546875 -6.6875 C 4.460938 -6.6875 5.195312 -6.375 5.75 -5.75 C 6.300781 -5.132812 6.578125 -4.3125 6.578125 -3.28125 C 6.578125 -2.238281 6.300781 -1.410156 5.75 -0.796875 C 5.195312 -0.179688 4.460938 0.125 3.546875 0.125 C 2.617188 0.125 1.878906 -0.179688 1.328125 -0.796875 C 0.773438 -1.410156 0.5 -2.238281 0.5 -3.28125 C 0.5 -4.3125 0.773438 -5.132812 1.328125 -5.75 C 1.878906 -6.375 2.617188 -6.6875 3.546875 -6.6875 Z M 3.546875 -6.6875 "/>
</symbol>
<symbol overflow="visible" id="glyph0-2">
<path style="stroke:none;" d="M 0.890625 -6.5625 L 2.078125 -6.5625 L 4.984375 -1.078125 L 4.984375 -6.5625 L 5.84375 -6.5625 L 5.84375 0 L 4.65625 0 L 1.75 -5.484375 L 1.75 0 L 0.890625 0 Z M 0.890625 -6.5625 "/>
</symbol>
<symbol overflow="visible" id="glyph0-3">
<path style="stroke:none;" d="M 0.890625 -6.5625 L 4.65625 -6.5625 L 4.65625 -5.8125 L 1.765625 -5.8125 L 1.765625 -3.875 L 4.375 -3.875 L 4.375 -3.140625 L 1.765625 -3.140625 L 1.765625 0 L 0.890625 0 Z M 0.890625 -6.5625 "/>
</symbol>
</g>
</defs>
<g id="surface30829">
<rect x="0" y="0" width="300" height="300" style="fill:rgb(100%,100%,100%);fill-opacity:1;stroke:none;"/>
<path style="fill:none;stroke-width:1.2;stroke-linecap:butt;stroke-linejoin:miter;stroke:rgb(0%,0%,0%);stroke-opacity:1;stroke-miterlimit:10;" d="M 52.582031 140.816406 L 35.25 122.703125 "/>
<path style="fill:none;stroke-width:1.2;stroke-linecap:butt;stroke-linejoin:miter;stroke:rgb(0%,0%,100%);stroke-opacity:1;stroke-miterlimit:10;" d="M 76.9375 134.863281 L 64.761719 137.839844 "/>
<path style="fill:none;stroke-width:1.2;stroke-linecap:butt;stroke-linejoin:miter;stroke:rgb(0%,0%,0%);stroke-opacity:1;stroke-miterlimit:10;" d="M 64.761719 137.839844 L 52.582031 140.816406 "/>
<path style="fill:none;stroke-width:1.2;stroke-linecap:butt;stroke-linejoin:miter;stroke:rgb(0%,0%,0%);stroke-opacity:1;stroke-miterlimit:10;" d="M 35.25 122.703125 L 38.761719 110.667969 "/>
<path style="fill:none;stroke-width:1.2;stroke-linecap:butt;stroke-linejoin:miter;stroke:rgb(100%,0%,0%);stroke-opacity:1;stroke-miterlimit:10;" d="M 38.761719 110.667969 L 42.269531 98.632812 "/>
<path style="fill:none;stroke-width:1.2;stroke-linecap:butt;stroke-linejoin:miter;stroke:rgb(100%,0%,0%);stroke-opacity:1;stroke-miterlimit:10;" d="M 42.269531 98.632812 L 54.449219 95.65625 "/>
<path style="fill:none;stroke-width:1.2;stroke-linecap:butt;stroke-linejoin:miter;stroke:rgb(0%,0%,0%);stroke-opacity:1;stroke-miterlimit:10;" d="M 54.449219 95.65625 L 66.625 92.679688 "/>
<path style=" stroke:none;fill-rule:nonzero;fill:rgb(100%,100%,100%);fill-opacity:1;" d="M 38.269531 93.132812 L 46.269531 93.132812 L 46.269531 104.132812 L 38.269531 104.132812 Z M 38.269531 93.132812 "/>
<g style="fill:rgb(100%,0%,0%);fill-opacity:1;">
  <use xlink:href="#glyph0-1" x="38.269531" y="101.795898"/>
</g>
<path style="fill:none;stroke-width:1.2;stroke-linecap:butt;stroke-linejoin:miter;stroke:rgb(0%,0%,0%);stroke-opacity:1;stroke-miterlimit:10;" d="M 66.625 92.679688 L 83.957031 110.792969 "/>
<path style="fill:none;stroke-width:1.2;stroke-linecap:butt;stroke-linejoin:miter;stroke:rgb(0%,0%,0%);stroke-opacity:1;stroke-miterlimit:10;" d="M 83.957031 110.792969 L 80.449219 122.828125 "/>
<path style="fill:none;stroke-width:1.2;stroke-linecap:butt;stroke-linejoin:miter;stroke:rgb(0%,0%,100%);stroke-opacity:1;stroke-miterlimit:10;" d="M 80.449219 122.828125 L 76.9375 134.863281 "/>
<path style="fill:none;stroke-width:1.2;stroke-linecap:butt;stroke-linejoin:miter;stroke:rgb(0%,0%,100%);stroke-opacity:1;stroke-miterlimit:10;" d="M 76.9375 134.863281 L 85.605469 143.921875 "/>
<path style="fill:none;stroke-width:1.2;stroke-linecap:butt;stroke-linejoin:miter;stroke:rgb(0%,0%,0%);stroke-opacity:1;stroke-miterlimit:10;" d="M 85.605469 143.921875 L 94.269531 152.976562 "/>
<path style=" stroke:none;fill-rule:nonzero;fill:rgb(100%,100%,100%);fill-opacity:1;" d="M 73.9375 129.363281 L 80.9375 129.363281 L 80.9375 140.363281 L 73.9375 140.363281 Z M 73.9375 129.363281 "/>
<g style="fill:rgb(0%,0%,100%);fill-opacity:1;">
  <use xlink:href="#glyph0-2" x="73.9375" y="138.026367"/>
</g>
<path style="fill:none;stroke-width:1.2;stroke-linecap:butt;stroke-linejoin:miter;stroke:rgb(0%,0%,0%);stroke-opacity:1;stroke-miterlimit:10;" d="M 94.269531 152.976562 L 90.761719 165.011719 "/>
<path style="fill:none;stroke-width:1.2;stroke-linecap:butt;stroke-linejoin:miter;stroke:rgb(0%,0%,100%);stroke-opacity:1;stroke-miterlimit:10;" d="M 90.761719 165.011719 L 87.25 177.046875 "/>
<path style="fill:none;stroke-width:1.2;stroke-linecap:butt;stroke-linejoin:miter;stroke:rgb(0%,0%,0%);stroke-opacity:1;stroke-miterlimit:10;" d="M 99.230469 157.035156 L 96.425781 166.664062 "/>
<path style="fill:none;stroke-width:1.2;stroke-linecap:butt;stroke-linejoin:miter;stroke:rgb(0%,0%,100%);stroke-opacity:1;stroke-miterlimit:10;" d="M 96.425781 166.664062 L 93.617188 176.289062 "/>
<path style="fill:none;stroke-width:1.2;stroke-linecap:butt;stroke-linejoin:miter;stroke:rgb(0%,0%,100%);stroke-opacity:1;stroke-miterlimit:10;" d="M 118.625 147.023438 L 106.449219 150 "/>
<path style="fill:none;stroke-width:1.2;stroke-linecap:butt;stroke-linejoin:miter;stroke:rgb(0%,0%,0%);stroke-opacity:1;stroke-miterlimit:10;" d="M 106.449219 150 L 94.269531 152.976562 "/>
<path style="fill:none;stroke-width:1.2;stroke-linecap:butt;stroke-linejoin:miter;stroke:rgb(0%,0%,100%);stroke-opacity:1;stroke-miterlimit:10;" d="M 87.25 177.046875 L 95.917969 186.101562 "/>
<path style="fill:none;stroke-width:1.2;stroke-linecap:butt;stroke-linejoin:miter;stroke:rgb(0%,0%,0%);stroke-opacity:1;stroke-miterlimit:10;" d="M 95.917969 186.101562 L 104.585938 195.160156 "/>
<path style=" stroke:none;fill-rule:nonzero;fill:rgb(100%,100%,100%);fill-opacity:1;" d="M 84.25 171.546875 L 91.25 171.546875 L 91.25 182.546875 L 84.25 182.546875 Z M 84.25 171.546875 "/>
<g style="fill:rgb(0%,0%,100%);fill-opacity:1;">
  <use xlink:href="#glyph0-2" x="84.25" y="180.209961"/>
</g>
<path style="fill:none;stroke-width:1.2;stroke-linecap:butt;stroke-linejoin:miter;stroke:rgb(0%,0%,0%);stroke-opacity:1;stroke-miterlimit:10;" d="M 104.585938 195.160156 L 128.9375 189.207031 "/>
<path style="fill:none;stroke-width:1.2;stroke-linecap:butt;stroke-linejoin:miter;stroke:rgb(0%,0%,0%);stroke-opacity:1;stroke-miterlimit:10;" d="M 105.617188 188.832031 L 125.101562 184.070312 "/>
<path style="fill:none;stroke-width:1.2;stroke-linecap:butt;stroke-linejoin:miter;stroke:rgb(0%,0%,0%);stroke-opacity:1;stroke-miterlimit:10;" d="M 128.9375 189.207031 L 135.957031 165.136719 "/>
<path style="fill:none;stroke-width:1.2;stroke-linecap:butt;stroke-linejoin:miter;stroke:rgb(0%,0%,100%);stroke-opacity:1;stroke-miterlimit:10;" d="M 146.273438 207.320312 L 137.605469 198.261719 "/>
<path style="fill:none;stroke-width:1.2;stroke-linecap:butt;stroke-linejoin:miter;stroke:rgb(0%,0%,0%);stroke-opacity:1;stroke-miterlimit:10;" d="M 137.605469 198.261719 L 128.9375 189.207031 "/>
<path style="fill:none;stroke-width:1.2;stroke-linecap:butt;stroke-linejoin:miter;stroke:rgb(0%,0%,0%);stroke-opacity:1;stroke-miterlimit:10;" d="M 135.957031 165.136719 L 127.292969 156.078125 "/>
<path style="fill:none;stroke-width:1.2;stroke-linecap:butt;stroke-linejoin:miter;stroke:rgb(0%,0%,100%);stroke-opacity:1;stroke-miterlimit:10;" d="M 127.292969 156.078125 L 118.625 147.023438 "/>
<path style="fill:none;stroke-width:1.2;stroke-linecap:butt;stroke-linejoin:miter;stroke:rgb(0%,0%,0%);stroke-opacity:1;stroke-miterlimit:10;" d="M 129.964844 167.402344 L 123.03125 160.160156 "/>
<path style="fill:none;stroke-width:1.2;stroke-linecap:butt;stroke-linejoin:miter;stroke:rgb(0%,0%,100%);stroke-opacity:1;stroke-miterlimit:10;" d="M 123.03125 160.160156 L 116.097656 152.914062 "/>
<path style="fill:none;stroke-width:1.2;stroke-linecap:butt;stroke-linejoin:miter;stroke:rgb(0%,0%,0%);stroke-opacity:1;stroke-miterlimit:10;" d="M 135.957031 165.136719 L 148.136719 162.160156 "/>
<path style="fill:none;stroke-width:1.2;stroke-linecap:butt;stroke-linejoin:miter;stroke:rgb(0%,0%,100%);stroke-opacity:1;stroke-miterlimit:10;" d="M 148.136719 162.160156 L 160.3125 159.183594 "/>
<path style=" stroke:none;fill-rule:nonzero;fill:rgb(100%,100%,100%);fill-opacity:1;" d="M 115.625 141.523438 L 122.625 141.523438 L 122.625 152.523438 L 115.625 152.523438 Z M 115.625 141.523438 "/>
<g style="fill:rgb(0%,0%,100%);fill-opacity:1;">
  <use xlink:href="#glyph0-2" x="115.625" y="150.186523"/>
</g>
<path style="fill:none;stroke-width:1.2;stroke-linecap:butt;stroke-linejoin:miter;stroke:rgb(0%,0%,100%);stroke-opacity:1;stroke-miterlimit:10;" d="M 160.3125 159.183594 L 168.980469 168.238281 "/>
<path style="fill:none;stroke-width:1.2;stroke-linecap:butt;stroke-linejoin:miter;stroke:rgb(0%,0%,0%);stroke-opacity:1;stroke-miterlimit:10;" d="M 168.980469 168.238281 L 177.644531 177.296875 "/>
<path style="fill:none;stroke-width:1.2;stroke-linecap:butt;stroke-linejoin:miter;stroke:rgb(0%,0%,100%);stroke-opacity:1;stroke-miterlimit:10;" d="M 160.3125 159.183594 L 163.824219 147.148438 "/>
<path style="fill:none;stroke-width:1.2;stroke-linecap:butt;stroke-linejoin:miter;stroke:rgb(0%,0%,0%);stroke-opacity:1;stroke-miterlimit:10;" d="M 163.824219 147.148438 L 167.332031 135.113281 "/>
<path style=" stroke:none;fill-rule:nonzero;fill:rgb(100%,100%,100%);fill-opacity:1;" d="M 157.3125 153.683594 L 164.3125 153.683594 L 164.3125 164.683594 L 157.3125 164.683594 Z M 157.3125 153.683594 "/>
<g style="fill:rgb(0%,0%,100%);fill-opacity:1;">
  <use xlink:href="#glyph0-2" x="157.3125" y="162.34668"/>
</g>
<path style="fill:none;stroke-width:1.2;stroke-linecap:butt;stroke-linejoin:miter;stroke:rgb(0%,0%,0%);stroke-opacity:1;stroke-miterlimit:10;" d="M 178.347656 180.164062 L 190.523438 177.183594 "/>
<path style="fill:none;stroke-width:1.2;stroke-linecap:butt;stroke-linejoin:miter;stroke:rgb(100%,0%,0%);stroke-opacity:1;stroke-miterlimit:10;" d="M 190.523438 177.183594 L 202.699219 174.207031 "/>
<path style="fill:none;stroke-width:1.2;stroke-linecap:butt;stroke-linejoin:miter;stroke:rgb(0%,0%,0%);stroke-opacity:1;stroke-miterlimit:10;" d="M 176.945312 174.433594 L 189.121094 171.453125 "/>
<path style="fill:none;stroke-width:1.2;stroke-linecap:butt;stroke-linejoin:miter;stroke:rgb(100%,0%,0%);stroke-opacity:1;stroke-miterlimit:10;" d="M 189.121094 171.453125 L 201.300781 168.476562 "/>
<path style="fill:none;stroke-width:1.2;stroke-linecap:butt;stroke-linejoin:miter;stroke:rgb(0%,0%,0%);stroke-opacity:1;stroke-miterlimit:10;" d="M 177.644531 177.296875 L 170.625 201.367188 "/>
<path style=" stroke:none;fill-rule:nonzero;fill:rgb(100%,100%,100%);fill-opacity:1;" d="M 198 165.84375 L 206 165.84375 L 206 176.84375 L 198 176.84375 Z M 198 165.84375 "/>
<g style="fill:rgb(100%,0%,0%);fill-opacity:1;">
  <use xlink:href="#glyph0-1" x="198" y="174.506836"/>
</g>
<path style="fill:none;stroke-width:1.2;stroke-linecap:butt;stroke-linejoin:miter;stroke:rgb(0%,0%,0%);stroke-opacity:1;stroke-miterlimit:10;" d="M 170.625 201.367188 L 158.449219 204.34375 "/>
<path style="fill:none;stroke-width:1.2;stroke-linecap:butt;stroke-linejoin:miter;stroke:rgb(0%,0%,100%);stroke-opacity:1;stroke-miterlimit:10;" d="M 158.449219 204.34375 L 146.273438 207.320312 "/>
<path style="fill:none;stroke-width:1.2;stroke-linecap:butt;stroke-linejoin:miter;stroke:rgb(0%,0%,0%);stroke-opacity:1;stroke-miterlimit:10;" d="M 166.789062 196.230469 L 157.046875 198.613281 "/>
<path style="fill:none;stroke-width:1.2;stroke-linecap:butt;stroke-linejoin:miter;stroke:rgb(0%,0%,100%);stroke-opacity:1;stroke-miterlimit:10;" d="M 157.046875 198.613281 L 147.304688 200.992188 "/>
<path style=" stroke:none;fill-rule:nonzero;fill:rgb(100%,100%,100%);fill-opacity:1;" d="M 143.273438 201.820312 L 150.273438 201.820312 L 150.273438 212.820312 L 143.273438 212.820312 Z M 143.273438 201.820312 "/>
<g style="fill:rgb(0%,0%,100%);fill-opacity:1;">
  <use xlink:href="#glyph0-2" x="143.273438" y="210.483398"/>
</g>
<path style="fill:none;stroke-width:1.2;stroke-linecap:butt;stroke-linejoin:miter;stroke:rgb(0%,0%,0%);stroke-opacity:1;stroke-miterlimit:10;" d="M 167.332031 135.113281 L 191.6875 129.160156 "/>
<path style="fill:none;stroke-width:1.2;stroke-linecap:butt;stroke-linejoin:miter;stroke:rgb(0%,0%,0%);stroke-opacity:1;stroke-miterlimit:10;" d="M 191.6875 129.160156 L 209.019531 147.273438 "/>
<path style="fill:none;stroke-width:1.2;stroke-linecap:butt;stroke-linejoin:miter;stroke:rgb(0%,0%,0%);stroke-opacity:1;stroke-miterlimit:10;" d="M 197.683594 126.894531 L 211.550781 141.382812 "/>
<path style="fill:none;stroke-width:1.2;stroke-linecap:butt;stroke-linejoin:miter;stroke:rgb(0%,0%,0%);stroke-opacity:1;stroke-miterlimit:10;" d="M 198.707031 105.09375 L 191.6875 129.160156 "/>
<path style="fill:none;stroke-width:1.2;stroke-linecap:butt;stroke-linejoin:miter;stroke:rgb(0%,0%,0%);stroke-opacity:1;stroke-miterlimit:10;" d="M 209.019531 147.273438 L 233.375 141.320312 "/>
<path style="fill:none;stroke-width:1.2;stroke-linecap:butt;stroke-linejoin:miter;stroke:rgb(0%,0%,0%);stroke-opacity:1;stroke-miterlimit:10;" d="M 233.375 141.320312 L 240.394531 117.253906 "/>
<path style="fill:none;stroke-width:1.2;stroke-linecap:butt;stroke-linejoin:miter;stroke:rgb(0%,0%,0%);stroke-opacity:1;stroke-miterlimit:10;" d="M 228.414062 137.261719 L 234.03125 118.007812 "/>
<path style="fill:none;stroke-width:1.2;stroke-linecap:butt;stroke-linejoin:miter;stroke:rgb(0%,0%,0%);stroke-opacity:1;stroke-miterlimit:10;" d="M 240.394531 117.253906 L 223.0625 99.136719 "/>
<path style="fill:none;stroke-width:1.2;stroke-linecap:butt;stroke-linejoin:miter;stroke:rgb(0%,0%,0%);stroke-opacity:1;stroke-miterlimit:10;" d="M 240.394531 117.253906 L 252.574219 114.273438 "/>
<path style="fill:none;stroke-width:1.2;stroke-linecap:butt;stroke-linejoin:miter;stroke:rgb(20%,80%,80%);stroke-opacity:1;stroke-miterlimit:10;" d="M 252.574219 114.273438 L 264.75 111.296875 "/>
<path style="fill:none;stroke-width:1.2;stroke-linecap:butt;stroke-linejoin:miter;stroke:rgb(0%,0%,0%);stroke-opacity:1;stroke-miterlimit:10;" d="M 223.0625 99.136719 L 198.707031 105.09375 "/>
<path style="fill:none;stroke-width:1.2;stroke-linecap:butt;stroke-linejoin:miter;stroke:rgb(0%,0%,0%);stroke-opacity:1;stroke-miterlimit:10;" d="M 222.027344 105.464844 L 202.542969 110.226562 "/>
<path style=" stroke:none;fill-rule:nonzero;fill:rgb(100%,100%,100%);fill-opacity:1;" d="M 261.75 105.796875 L 267.75 105.796875 L 267.75 116.796875 L 261.75 116.796875 Z M 261.75 105.796875 "/>
<g style="fill:rgb(20%,80%,80%);fill-opacity:1;">
  <use xlink:href="#glyph0-3" x="261.75" y="114.459961"/>
</g>
</g>
</svg>

<svg xmlns="http://www.w3.org/2000/svg" xmlns:xlink="http://www.w3.org/1999/xlink" width="300pt" height="300pt" viewBox="0 0 300 300"><defs><symbol overflow="visible"><path d="M.453 1.594v-7.938h4.5v7.938zm.5-.5h3.5v-6.938h-3.5zm0 0"/></symbol><symbol overflow="visible" id="a"><path d="M3.547-5.953c-.65 0-1.164.242-1.547.72-.375.48-.563 1.13-.563 1.952 0 .835.188 1.49.563 1.967.383.48.898.72 1.547.72.644 0 1.156-.24 1.53-.72.376-.476.564-1.132.564-1.968 0-.822-.187-1.474-.562-1.954-.375-.477-.887-.72-1.53-.72zm0-.734c.914 0 1.648.312 2.203.937.55.617.828 1.438.828 2.47 0 1.042-.277 1.87-.828 2.483-.555.617-1.29.922-2.203.922-.93 0-1.668-.305-2.22-.922C.774-1.41.5-2.237.5-3.28c0-1.033.273-1.853.828-2.47.55-.625 1.29-.938 2.22-.938zm0 0"/></symbol><symbol overflow="visible" id="b"><path d="M.89-6.563H2.08l2.906 5.485v-5.484h.86V0H4.656L1.75-5.484V0H.89zm0 0"/></symbol><symbol overflow="visible" id="c"><path d="M.89-6.563h3.766v.75h-2.89v1.938h2.61v.734h-2.61V0H.89zm0 0"/></symbol></defs><g><path fill="#fff" d="M0 0h300v300H0z"/><path d="M52.582 140.816L35.25 122.703" stroke-width="1.2" stroke="#000" stroke-miterlimit="10" fill="none"/><path d="M76.938 134.863L64.76 137.84" stroke-width="1.2" stroke="#00f" stroke-miterlimit="10" fill="none"/><path d="M64.762 137.84l-12.18 2.976M35.25 122.703l3.512-12.035" stroke-width="1.2" stroke="#000" stroke-miterlimit="10" fill="none"/><path d="M38.762 110.668l3.508-12.035M42.27 98.633l12.18-2.977" stroke-width="1.2" stroke="#f00" stroke-miterlimit="10" fill="none"/><path d="M54.45 95.656l12.175-2.976" stroke-width="1.2" stroke="#000" stroke-miterlimit="10" fill="none"/><path d="M38.27 93.133h8v11h-8zm0 0" fill="#fff"/><use xlink:href="#a" x="38.27" y="101.796" fill="#f00"/><path d="M66.625 92.68l17.332 18.113M83.957 110.793l-3.508 12.035" stroke-width="1.2" stroke="#000" stroke-miterlimit="10" fill="none"/><path d="M80.45 122.828l-3.513 12.035M76.938 134.863l8.667 9.06" stroke-width="1.2" stroke="#00f" stroke-miterlimit="10" fill="none"/><path d="M85.605 143.922l8.665 9.055" stroke-width="1.2" stroke="#000" stroke-miterlimit="10" fill="none"/><path d="M73.938 129.363h7v11h-7zm0 0" fill="#fff"/><use xlink:href="#b" x="73.938" y="138.026" fill="#00f"/><path d="M94.27 152.977l-3.508 12.035" stroke-width="1.2" stroke="#000" stroke-miterlimit="10" fill="none"/><path d="M90.762 165.012l-3.512 12.035" stroke-width="1.2" stroke="#00f" stroke-miterlimit="10" fill="none"/><path d="M99.23 157.035l-2.804 9.63" stroke-width="1.2" stroke="#000" stroke-miterlimit="10" fill="none"/><path d="M96.426 166.664l-2.81 9.625M118.625 147.023L106.45 150" stroke-width="1.2" stroke="#00f" stroke-miterlimit="10" fill="none"/><path d="M106.45 150l-12.18 2.977" stroke-width="1.2" stroke="#000" stroke-miterlimit="10" fill="none"/><path d="M87.25 177.047l8.668 9.055" stroke-width="1.2" stroke="#00f" stroke-miterlimit="10" fill="none"/><path d="M95.918 186.102l8.668 9.058" stroke-width="1.2" stroke="#000" stroke-miterlimit="10" fill="none"/><path d="M84.25 171.547h7v11h-7zm0 0" fill="#fff"/><use xlink:href="#b" x="84.25" y="180.21" fill="#00f"/><path d="M104.586 195.16l24.352-5.953M105.617 188.832l19.485-4.762M128.938 189.207l7.02-24.07" stroke-width="1.2" stroke="#000" stroke-miterlimit="10" fill="none"/><path d="M146.273 207.32l-8.668-9.058" stroke-width="1.2" stroke="#00f" stroke-miterlimit="10" fill="none"/><path d="M137.605 198.262l-8.667-9.055M135.957 165.137l-8.664-9.06" stroke-width="1.2" stroke="#000" stroke-miterlimit="10" fill="none"/><path d="M127.293 156.078l-8.668-9.055" stroke-width="1.2" stroke="#00f" stroke-miterlimit="10" fill="none"/><path d="M129.965 167.402l-6.934-7.242" stroke-width="1.2" stroke="#000" stroke-miterlimit="10" fill="none"/><path d="M123.03 160.16l-6.932-7.246" stroke-width="1.2" stroke="#00f" stroke-miterlimit="10" fill="none"/><path d="M135.957 165.137l12.18-2.977" stroke-width="1.2" stroke="#000" stroke-miterlimit="10" fill="none"/><path d="M148.137 162.16l12.175-2.976" stroke-width="1.2" stroke="#00f" stroke-miterlimit="10" fill="none"/><path d="M115.625 141.523h7v11h-7zm0 0" fill="#fff"/><use xlink:href="#b" x="115.625" y="150.187" fill="#00f"/><path d="M160.313 159.184l8.667 9.054" stroke-width="1.2" stroke="#00f" stroke-miterlimit="10" fill="none"/><path d="M168.98 168.238l8.665 9.06" stroke-width="1.2" stroke="#000" stroke-miterlimit="10" fill="none"/><path d="M160.313 159.184l3.51-12.036" stroke-width="1.2" stroke="#00f" stroke-miterlimit="10" fill="none"/><path d="M163.824 147.148l3.508-12.035" stroke-width="1.2" stroke="#000" stroke-miterlimit="10" fill="none"/><path d="M157.313 153.684h7v11h-7zm0 0" fill="#fff"/><use xlink:href="#b" x="157.313" y="162.347" fill="#00f"/><path d="M178.348 180.164l12.175-2.98" stroke-width="1.2" stroke="#000" stroke-miterlimit="10" fill="none"/><path d="M190.523 177.184l12.176-2.977" stroke-width="1.2" stroke="#f00" stroke-miterlimit="10" fill="none"/><path d="M176.945 174.434l12.176-2.98" stroke-width="1.2" stroke="#000" stroke-miterlimit="10" fill="none"/><path d="M189.12 171.453l12.18-2.976" stroke-width="1.2" stroke="#f00" stroke-miterlimit="10" fill="none"/><path d="M177.645 177.297l-7.02 24.07" stroke-width="1.2" stroke="#000" stroke-miterlimit="10" fill="none"/><path d="M198 165.844h8v11h-8zm0 0" fill="#fff"/><use xlink:href="#a" x="198" y="174.507" fill="#f00"/><path d="M170.625 201.367l-12.176 2.977" stroke-width="1.2" stroke="#000" stroke-miterlimit="10" fill="none"/><path d="M158.45 204.344l-12.177 2.976" stroke-width="1.2" stroke="#00f" stroke-miterlimit="10" fill="none"/><path d="M166.79 196.23l-9.743 2.383" stroke-width="1.2" stroke="#000" stroke-miterlimit="10" fill="none"/><path d="M157.047 198.613l-9.742 2.38" stroke-width="1.2" stroke="#00f" stroke-miterlimit="10" fill="none"/><path d="M143.273 201.82h7v11h-7zm0 0" fill="#fff"/><use xlink:href="#b" x="143.273" y="210.483" fill="#00f"/><path d="M167.332 135.113l24.356-5.953M191.688 129.16l17.332 18.113M197.684 126.895l13.867 14.488M198.707 105.094l-7.02 24.066M209.02 147.273l24.355-5.953M233.375 141.32l7.02-24.066M228.414 137.262l5.617-19.254M240.395 117.254l-17.333-18.117M240.395 117.254l12.18-2.98" stroke-width="1.2" stroke="#000" stroke-miterlimit="10" fill="none"/><path d="M252.574 114.273l12.176-2.976" stroke-width="1.2" stroke="#3cc" stroke-miterlimit="10" fill="none"/><path d="M223.063 99.137l-24.356 5.957M222.027 105.465l-19.484 4.762" stroke-width="1.2" stroke="#000" stroke-miterlimit="10" fill="none"/><path d="M261.75 105.797h6v11h-6zm0 0" fill="#fff"/><use xlink:href="#c" x="261.75" y="114.46" fill="#3cc"/></g></svg>
